svgs/duotone/square-kanban.svg

<svg xmlns="http://www.w3.org/2000/svg" viewBox="0 0 448 512"><!--! Font Awesome Pro 6.4.0 by @fontawesome - https://fontawesome.com License - https://fontawesome.com/license (Commercial License) Copyright 2023 Fonticons, Inc. --><defs><style>.fa-secondary{opacity:.4}</style></defs><path class="fa-primary" d="M288 352c0 17.7 14.3 32 32 32s32-14.3 32-32V160c0-17.7-14.3-32-32-32s-32 14.3-32 32V352zM96 288c0 17.7 14.3 32 32 32s32-14.3 32-32V160c0-17.7-14.3-32-32-32s-32 14.3-32 32V288zm128-32c17.7 0 32-14.3 32-32V160c0-17.7-14.3-32-32-32s-32 14.3-32 32v64c0 17.7 14.3 32 32 32z"/><path class="fa-secondary" d="M64 480c-35.3 0-64-28.7-64-64V96C0 60.7 28.7 32 64 32H384c35.3 0 64 28.7 64 64V416c0 35.3-28.7 64-64 64H64zm64-160c17.7 0 32-14.3 32-32V160c0-17.7-14.3-32-32-32s-32 14.3-32 32V288c0 17.7 14.3 32 32 32zm160 32c0 17.7 14.3 32 32 32s32-14.3 32-32V160c0-17.7-14.3-32-32-32s-32 14.3-32 32V352zm-64-96c17.7 0 32-14.3 32-32V160c0-17.7-14.3-32-32-32s-32 14.3-32 32v64c0 17.7 14.3 32 32 32z"/></svg>

<svg xmlns="http://www.w3.org/2000/svg" viewBox="0 0 448 512"><!--! Font Awesome Pro 6.3.0 by @fontawesome - https://fontawesome.com License - https://fontawesome.com/license (Commercial License) Copyright 2023 Fonticons, Inc. --><defs><style>.fa-secondary{opacity:.4}</style></defs><path class="fa-primary" d="M288 160C288 142.3 302.3 128 320 128C337.7 128 352 142.3 352 160V352C352 369.7 337.7 384 320 384C302.3 384 288 369.7 288 352V160zM96 160C96 142.3 110.3 128 128 128C145.7 128 160 142.3 160 160V288C160 305.7 145.7 320 128 320C110.3 320 96 305.7 96 288V160zM224 256C206.3 256 192 241.7 192 224V160C192 142.3 206.3 128 224 128C241.7 128 256 142.3 256 160V224C256 241.7 241.7 256 224 256z"/><path class="fa-secondary" d="M64 480C28.65 480 0 451.3 0 416V96C0 60.65 28.65 32 64 32H384C419.3 32 448 60.65 448 96V416C448 451.3 419.3 480 384 480H64zM160 288V160C160 142.3 145.7 128 128 128C110.3 128 96 142.3 96 160V288C96 305.7 110.3 320 128 320C145.7 320 160 305.7 160 288zM288 352C288 369.7 302.3 384 320 384C337.7 384 352 369.7 352 352V160C352 142.3 337.7 128 320 128C302.3 128 288 142.3 288 160V352zM256 224V160C256 142.3 241.7 128 224 128C206.3 128 192 142.3 192 160V224C192 241.7 206.3 256 224 256C241.7 256 256 241.7 256 224z"/></svg>
